!!!!SEGMENT: pl-sa--190-a-v-20--006_pych-leopold--missa-in-d-osanna.krn
!!!cenid: 17xx:1578
!!!COM: Pych, Leopold
!!!COM-rismID: pe30018039
!!!CDT: <1758->1774
!!!CNT:
!!!OPR: Missa in D
!!!OTL: Osanna
!!!OMV: 006
!!!PDT:
!!!AGN: Sacred; Mass
!!!SMS-siglum: PL-SA
!!!SMS-shelfmark: 190/A V 20
!!!SMS-shelfwork: 001-006 M
!!!SMS-variant:
!!!SMS-altvar:
!!!NIFC-rismSourceID: 1001035913
!!!NIFC-islandoraID:
!!!URL-pdf-islandora:
!!!URL-scan: https://bc.bdsandomierz.pl/dlibra/publication/1527/edition/1495/content @EN{Scan on Cyfrowa Biblioteka Diecezjalna w Sandomierzu} @PL{Skany w portalu Cyfrowa Biblioteka Diecezjalna w Sandomierzu}
!!!ONB-nifc: UWAGA: części Mszy: 1. Sinfonia, 2. Kyrie, 3. Gloria, 4. Credo, 5. Sanctus, 6. Osanna, 7. Benedictus, 8. Agnus Dei, 9. Dona nobis
!!!AIN: 1 alto 1 bass 2 cor 1 organ 1 soprn 1 tenor 2 violn
!!!key: D
**kern	**fba	**dynam	**kern	**dynam	**kern	**dynam	**kern	**text	**kern	**text	**kern	**text	**kern	**kern	**kern	**dynam
*	*	*	*group3	*	*group3	*	*group2	*	*group2	*	*group2	*	*group2	*group1	*group1	*
*part9	*part9	*part9	*part8	*part8	*part7	*part7	*part6	*part6	*part5	*part5	*part4	*part4	*part3	*part2	*part1	*part1
*staff9	*	*	*staff8	*	*staff7	*	*staff6	*staff6	*staff5	*staff5	*staff4	*staff4	*staff3	*staff2	*staff1	*
*I"Fundamento	*	*	*I"Violino 2do:	*	*I"Violino Primo:	*	*I"Baſso	*	*I"Tenore.	*	*I"Alto	*	*I"Canto	*I"Cornu 2do Ex D:	*I"Cornu Primo. Ex D#	*
*I'bc	*	*	*I'vl 2	*	*I'vl 1	*	*I'B	*	*I'T	*	*I'A	*	*I'S	*I'cor 2 in D	*I'cor 1 in D#	*
*Iorgan	*	*	*Ivioln	*	*Ivioln	*	*Ibass	*	*Itenor	*	*Ialto	*	*Isoprn	*Icor	*Icor	*
*ICklav	*	*	*ICstr	*	*ICstr	*	*ICvox	*	*ICvox	*	*ICvox	*	*ICvox	*ICbras	*ICbras	*
*IGcont	*	*	*IGacmp	*	*IGacmp	*	*IGcoro	*	*IGcoro	*	*IGcoro	*	*IGcoro	*IGacmp	*IGacmp	*
*clefF4	*	*	*clefG2	*	*clefG2	*	*clefF4	*	*clefC4	*	*clefC3	*	*	*clefG2	*clefG2	*
*	*	*	*	*	*	*	*	*	*	*	*	*	*	*ITrd-1c-2	*ITrd-1c-2	*
*k[f#c#]	*	*	*k[f#c#]	*	*k[f#c#]	*	*k[f#c#]	*	*k[c#f#]	*	*k[f#c#]	*	*	*k[f#c#]	*k[f#c#]	*
*D:	*	*	*D:	*	*D:	*	*D:	*	*D:	*	*D:	*	*	*D:	*D:	*
*M2/4	*	*	*M2/4	*	*M2/4	*	*M2/4	*	*M2/4	*	*M2/4	*	*	*M2/4	*M2/4	*
*all\right	*	*	*all\right	*	*all\right	*	*all\right	*	*all\right	*	*all\right	*	*	*all\right	*all\right	*
=1	=1	=1	=1	=1	=1	=1	=1	=1	=1	=1	=1	=1	=1	=1	=1	=1
!LO:TX:a:i:t=Solo	!	!	!	!	!	!	!	!	!	!	!	!	!LO:TX:a:t=P:problem=zgodnie z RISM "S part missing"	!	!	!
8r	.	.	0r	.	0r	.	0r	.	0r	.	1r	.	2ryy	0r	0r	.
8d\L	.	.	.	.	.	.	.	.	.	.	.	.	.	.	.	.
8c#\	.	.	.	.	.	.	.	.	.	.	.	.	.	.	.	.
8A\J	.	.	.	.	.	.	.	.	.	.	.	.	.	.	.	.
=2	=2	=2	=2	=2	=2	=2	=2	=2	=2	=2	=2	=2	=2	=2	=2	=2
8d\L	.	.	.	.	.	.	.	.	.	.	.	.	2ryy	.	.	.
16F#\L	.	.	.	.	.	.	.	.	.	.	.	.	.	.	.	.
16E\JJ	.	.	.	.	.	.	.	.	.	.	.	.	.	.	.	.
8D\L	.	.	.	.	.	.	.	.	.	.	.	.	.	.	.	.
8E\J	.	.	.	.	.	.	.	.	.	.	.	.	.	.	.	.
=3	=3	=3	=3	=3	=3	=3	=3	=3	=3	=3	=3	=3	=3	=3	=3	=3
4F#\	.	.	.	.	.	.	.	.	.	.	2r	.	2ryy	.	.	.
4G\	.	.	.	.	.	.	.	.	.	.	.	.	.	.	.	.
=4	=4	=4	=4	=4	=4	=4	=4	=4	=4	=4	=4	=4	=4	=4	=4	=4
8A\L	.	.	.	.	.	.	.	.	.	.	4a\	O-	2ryy	.	.	.
8c#\	.	.	.	.	.	.	.	.	.	.	.	.	.	.	.	.
8G#X\	.	.	.	.	.	.	.	.	.	.	4b\	-san-	.	.	.	.
8E\J	.	.	.	.	.	.	.	.	.	.	.	.	.	.	.	.
=5	=5	=5	=5	=5	=5	=5	=5	=5	=5	=5	=5	=5	=5	=5	=5	=5
8A\L	.	.	0r	.	0r	.	0r	.	0r	.	8cc#\	-na	2ryy	0r	0r	.
16c#\L	.	.	.	.	.	.	.	.	.	.	8a\	o-	.	.	.	.
16B\JJ	.	.	.	.	.	.	.	.	.	.	.	.	.	.	.	.
8A\L	.	.	.	.	.	.	.	.	.	.	8cc#\	-san-	.	.	.	.
8B\J	.	.	.	.	.	.	.	.	.	.	8dd\	-na	.	.	.	.
=6	=6	=6	=6	=6	=6	=6	=6	=6	=6	=6	=6	=6	=6	=6	=6	=6
4c#\	.	.	.	.	.	.	.	.	.	.	8ee\	in	2ryy	.	.	.
.	.	.	.	.	.	.	.	.	.	.	16dd\LL	ex-	.	.	.	.
.	.	.	.	.	.	.	.	.	.	.	16cc#\JJ	.	.	.	.	.
4d\	.	.	.	.	.	.	.	.	.	.	8b\L	-cel-	.	.	.	.
.	.	.	.	.	.	.	.	.	.	.	8a\J	.	.	.	.	.
!LO:LB:g=original	!	!	!	!	!	!	!	!	!	!	!LO:LB:g=original	!	!	!	!	!
=7	=7	=7	=7	=7	=7	=7	=7	=7	=7	=7	=7	=7	=7	=7	=7	=7
4e\	.	.	.	.	.	.	.	.	.	.	8g#X\	-sis	2ryy	.	.	.
.	.	.	.	.	.	.	.	.	.	.	8r	.	.	.	.	.
8r	.	.	.	.	.	.	.	.	.	.	4r	.	.	.	.	.
8E\	#	.	.	.	.	.	.	.	.	.	.	.	.	.	.	.
=8	=8	=8	=8	=8	=8	=8	=8	=8	=8	=8	=8	=8	=8	=8	=8	=8
4F#\	6	.	.	.	.	.	.	.	.	.	2r	.	2ryy	.	.	.
4G#X\	6 5	.	.	.	.	.	.	.	.	.	.	.	.	.	.	.
=9	=9	=9	=9	=9	=9	=9	=9	=9	=9	=9	=9	=9	=9	=9	=9	=9
!LO:TX:t=P:problem=mixed beam	!	!	!	!	!	!	!	!	!	!	!	!	!	!	!	!
8A\L	.	.	0r	.	0r	.	0r	.	0r	.	8r	.	2ryy	0r	0r	.
8AA/	.	.	.	.	.	.	.	.	.	.	8a\	o-	.	.	.	.
8C#/	.	.	.	.	.	.	.	.	.	.	8e\	-san-	.	.	.	.
8D/J	.	.	.	.	.	.	.	.	.	.	8f#\	-na	.	.	.	.
=10	=10	=10	=10	=10	=10	=10	=10	=10	=10	=10	=10	=10	=10	=10	=10	=10
8E\L	n3	.	.	.	.	.	.	.	.	.	8gn\	in	2ryy	.	.	.
8BB\	.	.	.	.	.	.	.	.	.	.	16f#\LL	ex-	.	.	.	.
.	.	.	.	.	.	.	.	.	.	.	16g\JJ	.	.	.	.	.
8C#\	.	.	.	.	.	.	.	.	.	.	16a\LL	-cel-	.	.	.	.
.	.	.	.	.	.	.	.	.	.	.	16g\	.	.	.	.	.
8AA\J	.	.	.	.	.	.	.	.	.	.	16f#\	.	.	.	.	.
.	.	.	.	.	.	.	.	.	.	.	16e\JJ	.	.	.	.	.
=11	=11	=11	=11	=11	=11	=11	=11	=11	=11	=11	=11	=11	=11	=11	=11	=11
8D\L	.	.	.	.	.	.	.	.	.	.	8f#\	-sis	2ryy	.	.	.
8D\	.	.	.	.	.	.	.	.	.	.	8r	.	.	.	.	.
8G\	.	.	.	.	.	.	.	.	.	.	8r	.	.	.	.	.
8D\J	.	.	.	.	.	.	.	.	.	.	8dd\	o-	.	.	.	.
=12	=12	=12	=12	=12	=12	=12	=12	=12	=12	=12	=12	=12	=12	=12	=12	=12
4A\	.	.	.	.	.	.	.	.	.	.	8dd\	-san-	2ryy	.	.	.
.	.	.	.	.	.	.	.	.	.	.	16cc#\LL	-na	.	.	.	.
.	.	.	.	.	.	.	.	.	.	.	16b\JJ	.	.	.	.	.
4AA/	.	.	.	.	.	.	.	.	.	.	8cc#\	in	.	.	.	.
.	.	.	.	.	.	.	.	.	.	.	16dd\LL	ex-	.	.	.	.
.	.	.	.	.	.	.	.	.	.	.	16ee\JJ	.	.	.	.	.
!	!	!	!	!	!	!	!	!	!	!	!LO:LB:g=original	!	!	!	!	!
=13	=13	=13	=13	=13	=13	=13	=13	=13	=13	=13	=13	=13	=13	=13	=13	=13
4D\	.	.	0r	.	0r	.	0r	.	0r	.	8dd\L	-cel-	2ryy	0r	0r	.
.	.	.	.	.	.	.	.	.	.	.	16b\L	.	.	.	.	.
.	.	.	.	.	.	.	.	.	.	.	16a\JJ	.	.	.	.	.
4GG/	.	.	.	.	.	.	.	.	.	.	8g\L	.	.	.	.	.
.	.	.	.	.	.	.	.	.	.	.	8f#\J	.	.	.	.	.
=14	=14	=14	=14	=14	=14	=14	=14	=14	=14	=14	=14	=14	=14	=14	=14	=14
4AA/	.	.	.	.	.	.	.	.	.	.	4e\	.	2ryy	.	.	.
4r	.	.	.	.	.	.	.	.	.	.	16a\LL	.	.	.	.	.
.	.	.	.	.	.	.	.	.	.	.	16b\	.	.	.	.	.
.	.	.	.	.	.	.	.	.	.	.	16cc#\	.	.	.	.	.
.	.	.	.	.	.	.	.	.	.	.	16dd\JJ	.	.	.	.	.
=15	=15	=15	=15	=15	=15	=15	=15	=15	=15	=15	=15	=15	=15	=15	=15	=15
8r	.	.	.	.	.	.	.	.	.	.	8ee\	.	2ryy	.	.	.
8A\L	.	.	.	.	.	.	.	.	.	.	16dd\LL	-sis	.	.	.	.
.	.	.	.	.	.	.	.	.	.	.	16cc#\JJ	.	.	.	.	.
8d\	.	.	.	.	.	.	.	.	.	.	8dd\	in	.	.	.	.
8G\J	.	.	.	.	.	.	.	.	.	.	8ee\	ex-	.	.	.	.
=16	=16	=16	=16	=16	=16	=16	=16	=16	=16	=16	=16	=16	=16	=16	=16	=16
4A\	6 4	.	.	.	.	.	.	.	.	.	4dd\	-cel-	2ryy	.	.	.
4AA/	5 3	.	.	.	.	.	.	.	.	.	4cc#\	.	.	.	.	.
!LO:LB:g=original	!	!	!	!	!	!	!	!	!	!	!	!	!	!	!	!
=17	=17	=17	=17	=17	=17	=17	=17	=17	=17	=17	=17	=17	=17	=17	=17	=17
!LO:TX:a:t=Tut	!	!	!	!	!	!	!	!	!	!	!	!	!	!	!	!
8D/L	.	.	4dd\	.	4dd\	.	8r	.	8r	.	8dd\	-sis	2ryy	4f#/	4dd\	.
8D/	.	.	.	.	.	.	8D/	O-	8f#\	O-	8a\	o-	.	.	.	.
8C#/	.	.	4ee\	.	4ee\	.	8C#/L	-san-	8e\L	-san-	4a\	-san-	.	4a/	4ee\	.
8AA/J	.	.	.	.	.	.	8AA/J	.	8c#\J	.	.	.	.	.	.	.
=18	=18	=18	=18	=18	=18	=18	=18	=18	=18	=18	=18	=18	=18	=18	=18	=18
8D\L	.	.	8ff#\L	.	8ff#\L	.	8D\	-na	8d\	-na	8a,<\	-na	2ryy	8dd\L	8ff#\L	.
*	*	*	*	*	*	*	*	*	*	*ij	*	*ij	*	*	*	*
16F#\L	.	.	8dd\	.	8dd\	.	16F#\LL	o-	8d\	O-	8a\	o-	.	8dd\	8dd\	.
16E\JJ	.	.	.	.	.	.	16E\JJ	.	.	.	.	.	.	.	.	.
8D\L	.	.	8ff#\	.	8ff#\	.	8D\	-san-	8d\	-san-	8a\	-san-	.	8dd\	8ff#\	.
8E\J	.	.	8gg\J	.	8gg\J	.	8E\	-na	8c#\	-na	8a\	-na	.	8a\J	8gg\J	.
*	*	*	*	*	*	*	*	*	*	*Xij	*	*Xij	*	*	*	*
!	!	!	!	!	!	!	!LO:LB:g=original	!	!	!	!	!	!	!	!	!
=19	=19	=19	=19	=19	=19	=19	=19	=19	=19	=19	=19	=19	=19	=19	=19	=19
4F#\	.	.	8aa\L	.	8aa\L	.	8F#\	in	8d\	in	8a\	in	2ryy	8dd\L	8aa\L	.
.	.	.	16gg\L	.	16gg\L	.	8F#\	ex-	8d\	ex-	16b\LL	ex-	.	16ee\L	16gg\L	.
.	.	.	16ff#\JJ	.	16ff#\JJ	.	.	.	.	.	16a\JJ	.	.	16ff#\JJ	16ff#\JJ	.
4G\	.	.	8ee\L	.	8ee\L	.	4G\	-cel-	4B\	-cel-	8g\L	-cel-	.	8ee\L	8ee\L	.
.	.	.	8dd\J	.	8dd\J	.	.	.	.	.	8f#\J	.	.	8dd\J	8dd\J	.
!	!	!	!	!	!	!	!	!	!	!	!LO:LB:g=original	!	!	!LO:LB:g=original	!	!
=20	=20	=20	=20	=20	=20	=20	=20	=20	=20	=20	=20	=20	=20	=20	=20	=20
!LO:TX:t=P:problem=mixed beam	!	!	!	!	!	!	!	!	!	!	!	!	!	!	!	!
.	.	.	8qqdd/	.	8qqdd/	.	.	.	.	.	.	.	.	.	.	.
8A\L	.	.	4cc#\	.	4cc#\	.	4A\	-sis	4A\	-sis	4e\	-sis	2ryy	4a/	4a/	.
8AA/	.	.	.	.	.	.	.	.	.	.	.	.	.	.	.	.
8C#/	.	.	4cc#\	.	[4ee\	.	4C#/	o-	4c#\	o-	4cc#\	o-	.	4r	4r	.
8AA/J	5	.	.	.	.	.	.	.	.	.	.	.	.	.	.	.
=21	=21	=21	=21	=21	=21	=21	=21	=21	=21	=21	=21	=21	=21	=21	=21	=21
4D\	9 2	.	8cc#\L	.	8ee\L]	.	(4D\	-san-	4c#\	-san-	(4f#\	-san-	2ryy	1r	1r	.
.	.	.	16b\L	.	16dd\L	.	.	.	.	.	.	.	.	.	.	.
.	.	.	16a\JJ	.	16cc#\JJ	.	.	.	.	.	.	.	.	.	.	.
4E\	2 5	.	8b\L	.	8dd\L	.	4E\)	.	4B\	.	4g#X\)	.	.	.	.	.
.	.	.	8b\J	.	8dd\J	.	.	.	.	.	.	.	.	.	.	.
!	!	!	!	!	!	!	!	!	!LO:LB:g=original	!	!	!	!	!	!	!
=22	=22	=22	=22	=22	=22	=22	=22	=22	=22	=22	=22	=22	=22	=22	=22	=22
.	.	.	(8qqb/	.	8qqdd/	.	.	.	.	.	.	.	.	.	.	.
4F#\	5	.	4a/)	.	4cc#\	.	4F#\	-na	4A\	-na	4a\	-na	2ryy	.	.	.
4C#/	6	.	8cc#\L	.	8ee\L	.	8r	.	8r	.	8r	.	.	.	.	.
*	*	*	*	*	*	*	*	*	*	*	*	*ij	*	*	*	*
.	.	.	8cc#\J	.	8ee\J	.	8C#/	o-	8d\	o-	8a\	o-	.	.	.	.
=23	=23	=23	=23	=23	=23	=23	=23	=23	=23	=23	=23	=23	=23	=23	=23	=23
.	.	.	8qqdd/	.	(<8qqff#/	.	.	.	(<8qqd/	.	.	.	.	.	.	.
*	*	*	*	*	*	*	*	*ij	*	*	*	*	*	*	*	*
4D\	9 2	.	8cc#\L	.	8ee\L)	.	8D\	-san-	8c#\)	-san-	8f#\	-san-	2ryy	2r	2r	.
.	.	.	16b\L	.	16dd\L	.	8D\	-na	16B\LL	-na	8f#\	-na	.	.	.	.
.	.	.	16a\JJ	.	16cc#\JJ	.	.	.	16A\JJ	.	.	.	.	.	.	.
4E\	2 5	.	8b\L	.	8dd\L	.	8E\	in	8B\	in	8g#X\	in	.	.	.	.
.	.	.	8b\J	.	8dd\J	.	8E\	ex-	8B\	ex-	8g#\	ex-	.	.	.	.
!	!	!	!	!	!LO:LB:g=original	!	!	!	!	!	!	!	!	!	!	!
=24	=24	=24	=24	=24	=24	=24	=24	=24	=24	=24	=24	=24	=24	=24	=24	=24
8AA/L	6\	.	8cc#\L	.	8cc#\L	.	8A\L	-cel-	4e\	-cel-	8a\L	-cel-	2ryy	4r	4r	.
!	!	!	!	!	!LO:N:vis=8	!	!	!	!	!	!	!	!	!	!	!
8BB/	.	.	8dd\J	.	16aa\L	.	8B\J	.	.	.	8g#X\J	.	.	.	.	.
.	.	.	.	.	(32gg#X\L	.	.	.	.	.	.	.	.	.	.	.
.	.	.	.	.	32ff#\JJJ)	.	.	.	.	.	.	.	.	.	.	.
!	!	!	!LO:TX:t=P:problem=mixed beam	!	!LO:TX:t=P:problem=mixed beam	!	!	!	!	!	!	!	!	!	!	!
8C#/	.	.	16.ee\LL	.	16.ee\LL	.	8c#\	-sis	8e\	-sis	8a\	-sis	.	16.r	16.r	.
*	*	*	*	*	*	*	*	*Xij	*	*	*	*	*	*	*	*
.	.	.	32e/JJk	.	32e/JJk	.	.	.	.	.	.	.	.	32ee\KLL	32ee\KLL	.
8E/J	#	.	16.g#X/LL	.	16.b\LL	.	8E\	o-	8e\	o-	8g#\	o-	.	16.ee\	16.ee\	.
.	.	.	32b/JJk	.	32dd\JJk	.	.	.	.	.	.	.	.	32ee\JJk	32ee\JJk	.
!	!	!	!LO:LB:g=original	!	!	!	!LO:LB:g=original	!	!	!	!	!	!	!	!LO:LB:g=original	!
=25	=25	=25	=25	=25	=25	=25	=25	=25	=25	=25	=25	=25	=25	=25	=25	=25
*	*	*	*	*	*	*	*	*	*	*ij	*	*	*	*	*	*
8AA/L	.	.	8cc#\L	.	8cc#\L	.	8AA/	-san-	8e\	-san-	8a\	-san-	2ryy	4ee\	4ee\	.
!	!	!	!	!	!LO:N:vis=8	!	!	!	!	!	!	!	!	!	!	!
8BB/	.	.	8dd\J	.	(16aa\L	.	8BB/	-na	8e\	-na	8g#X\	-na	.	.	.	.
.	.	.	.	.	32gg#X\L	.	.	.	.	.	.	.	.	.	.	.
.	.	.	.	.	32ff#\JJJ)	.	.	.	.	.	.	.	.	.	.	.
!	!	!	!LO:TX:t=P:problem=mixed beam	!	!LO:TX:t=P:problem=mixed beam	!	!	!	!	!	!	!	!	!	!	!
8C#/	.	.	16.ee\LL	.	16.ee\LL	.	8C#/	in	8e\	in	8a\	in	.	16.r	16.r	.
.	.	.	32e/JJk	.	32e/JJk	.	.	.	.	.	.	.	.	32ee\KLL	32ee\KLL	.
8E/J	#	.	16.g#X/LL	.	16.b\LL	.	8D/	ex-	8e\	ex-	8g#\	ex-	.	16.ee\	16.ee\	.
.	.	.	32b/JJk	.	32dd\JJk	.	.	.	.	.	.	.	.	32ee\JJk	32ee\JJk	.
*	*	*	*	*	*	*	*	*	*	*Xij	*	*	*	*	*	*
!LO:LB:g=original	!	!	!	!	!	!	!	!	!	!	!	!	!	!	!	!
=26	=26	=26	=26	=26	=26	=26	=26	=26	=26	=26	=26	=26	=26	=26	=26	=26
*	*	*	*	*	*Xtuplet	*	*	*	*	*	*	*	*	*	*	*
!LO:TX:t=P:problem=mixed beam	!	!	!	!	!	!	!	!	!	!	!	!	!	!	!	!
8AA/L	.	.	8e/	.	24cc#\LL	.	4A\	-cel-	4e\	-cel-	(4.a\	-cel-	2ryy	8a\L	8ee\	.
*	*	*	*	*	*	*	*	*	*	*	*	*Xij	*	*	*	*
.	.	.	.	.	24ee\	.	.	.	.	.	.	.	.	.	.	.
.	.	.	.	.	24aa\JJ	.	.	.	.	.	.	.	.	.	.	.
8A\J	.	.	4a/	.	24cc#\LL	.	.	.	.	.	.	.	.	8ee\	4aa\	.
.	.	.	.	.	24b\	.	.	.	.	.	.	.	.	.	.	.
.	.	.	.	.	24a\JJ	.	.	.	.	.	.	.	.	.	.	.
.	.	.	.	.	(<8qqa/	.	.	.	.	.	.	.	.	.	.	.
8D\L	6 5	.	.	.	4bM\)	.	8D\L	.	8f#\L	.	.	.	.	8ff#\	.	.
8E\J	#	.	8g#X/	.	.	.	8E\J	.	8e\J	.	8g#X\)	.	.	8ee\J	8gg#X\	.
=27	=27	=27	=27	=27	=27	=27	=27	=27	=27	=27	=27	=27	=27	=27	=27	=27
!LO:TX:t=P:problem=mixed beam	!	!	!	!	!	!	!	!	!	!	!	!	!	!	!	!
8AA/L	.	.	4a/	.	4a/	.	4A\	-sis	4e\	-sis	4a\	-sis	2ryy	4ee\	4aa\	.
16A\L	.	.	.	.	.	.	.	.	.	.	.	.	.	.	.	.
16B\JJ	.	.	.	.	.	.	.	.	.	.	.	.	.	.	.	.
8A\L	.	.	8r	.	8r	.	8r	.	8r	.	8r	.	.	4r	4r	.
*	*	*	*	*	*	*	*	*ij	*	*	*	*	*	*	*	*
8G\J	.	.	8a/	.	8a/	.	8G\	o-	8B\	o-	8a\	o-	.	.	.	.
!	!	!	!	!	!	!	!	!	!LO:LB:g=original	!	!LO:PB:g=original	!	!	!	!	!
=28	=28	=28	=28	=28	=28	=28	=28	=28	=28	=28	=28	=28	=28	=28	=28	=28
*	*	*	*	*	*	*	*	*	*	*ij	*	*	*	*	*	*
8F#\L	6	.	8a/L	.	16a\LL|	.	8F#\	-san-	8d\	-san-	8a\	-san-	2ryy	8r	8r	.
.	.	.	.	.	(16dd\	.	.	.	.	.	.	.	.	.	.	.
8F#\	.	.	8a/	.	16cc#\	.	8F#\	-na	8d\	-na	8a\	-na	.	8dd\L	8dd\L	.
.	.	.	.	.	16dd\JJ)	.	.	.	.	.	.	.	.	.	.	.
8F#\	.	.	8a/	.	24aa\LL|	.	8F#\	in	8d\	in	8a\	in	.	8dd\	8dd\	.
.	.	.	.	.	(24cc#\	.	.	.	.	.	.	.	.	.	.	.
.	.	.	.	.	24dd\JJ)	.	.	.	.	.	.	.	.	.	.	.
!	!	!	!	!	!LO:TX:t=P:problem=mixed beam	!	!	!	!	!	!	!	!	!	!	!
8F#\J	5-	.	8a/J	.	24aa\LL|	.	8F#\	ex-	8d\	ex-	8a\	ex-	.	8dd\J	8dd\J	.
.	.	.	.	.	(24a/	.	.	.	.	.	.	.	.	.	.	.
.	.	.	.	.	24ccn/JJ)	.	.	.	.	.	.	.	.	.	.	.
=29	=29	=29	=29	=29	=29	=29	=29	=29	=29	=29	=29	=29	=29	=29	=29	=29
8G\L	6	.	4aM/	.	4ccn\	.	4G\	-cel-	4d\	-cel-	4a\	-cel-	2ryy	8dd\L	8dd\L	.
8G\	.	.	.	.	.	.	.	.	.	.	.	.	.	16dd\L	16dd\L	.
.	.	.	.	.	.	.	.	.	.	.	.	.	.	16dd\JJ	16dd\JJ	.
8G\	.	.	8g/L	.	8b\L	.	8G\	-sis	8d\	-sis	8g\	-sis	.	8dd\	8dd\	.
*	*	*	*	*	*	*	*	*Xij	*	*Xij	*	*ij	*	*	*	*
8G\J	.	.	8b/J	.	8b\J	.	8G\	o-	8d\	o-	8b\	o-	.	8r	8r	.
!	!	!	!	!	!LO:LB:g=original	!	!	!	!	!	!	!	!	!	!	!
=30	=30	=30	=30	=30	=30	=30	=30	=30	=30	=30	=30	=30	=30	=30	=30	=30
*	*	*	*	*	*	*	*	*	*	*ij	*	*	*	*	*	*
8G#X\L	4	.	8b\L	.	16b\LL|	.	8G#X\	-san-	8e\	-san-	8b\	-san-	2ryy	8r	8r	.
.	.	.	.	.	(16ee\	.	.	.	.	.	.	.	.	.	.	.
8G#\	3	.	8b\	.	16dd#X\	.	8G#\	-na	8e\	-na	8b\	-na	.	8ee\L	8ee\L	.
.	.	.	.	.	16ee\JJ)	.	.	.	.	.	.	.	.	.	.	.
!	!	!	!	!	!	!	!LO:LB:g=original	!	!	!	!	!	!	!	!	!
8G#\	6	.	8b\	.	24bb\LL|	.	8G#X\	in	8e\	in	8b\	in	.	8ee\	8ee\	.
.	.	.	.	.	(24dd#X\	.	.	.	.	.	.	.	.	.	.	.
.	.	.	.	.	24ee\JJ)	.	.	.	.	.	.	.	.	.	.	.
8G#\J	.	.	8b\J	.	24bb\LL|	.	8G#\	ex-	8e\	ex-	8b\	ex-	.	8ee\J	8ee\J	.
.	.	.	.	.	(24b\	.	.	.	.	.	.	.	.	.	.	.
.	.	.	.	.	24ddn\JJ)	.	.	.	.	.	.	.	.	.	.	.
!	!	!	!	!	!	!	!	!	!	!	!	!	!	!LO:LB:g=original	!	!
=31	=31	=31	=31	=31	=31	=31	=31	=31	=31	=31	=31	=31	=31	=31	=31	=31
8A\L	4	.	4bM\	.	4ddM\	.	4A\	-cel-	4e\	-cel-	4bM\	-cel-	2ryy	8a/L	8ee\L	.
8A\	#	.	.	.	.	.	.	.	.	.	.	.	.	16a/L	16ee\L	.
.	.	.	.	.	.	.	.	.	.	.	.	.	.	16a/JJ	16ee\JJ	.
!	!	!	!	!	!	!	!	!	!	!	!	!	!	!LO:TX:t=P:problem=mixed beam	!	!
8A\	.	.	8a\L	.	8cc#\L	.	8A\	-sis	8e\	-sis	8a\	-sis	.	8a/L	8ee\L	.
*	*	*	*	*	*	*	*	*	*	*Xij	*	*Xij	*	*	*	*
8F#\J	.	.	8ff#\J	.	[<8aa\J	.	8F#\	o-	8f#\	o-	8dd\	o-	.	8ff#\J	8aa\J	.
=32	=32	=32	=32	=32	=32	=32	=32	=32	=32	=32	=32	=32	=32	=32	=32	=32
.	.	.	(<16qqgg/	.	.	.	.	.	.	.	.	.	.	(<16qqgg/	(<8qbb/	.
4Gn\	9 2	.	8ff#\L)	.	8aa\L]	.	(4Gn\	-san-	4f#\	-san-	(4b\	-san-	2ryy	8ff#\L)	8aa\L)	.
.	.	.	16ee\L	.	16gg\L	.	.	.	.	.	.	.	.	16ee\L	16gg\L	.
.	.	.	16dd\JJ	.	16ff#\JJ	.	.	.	.	.	.	.	.	16dd\JJ	16ff#\JJ	.
4A\	2 5	.	8ee\L	.	8gg\L	.	4A\)	.	4e\	.	4cc#\)	.	.	8ee\L	8gg\L	.
!	!	!	!	!	!LO:TX:b:i:t=Verte Cito	!	!	!	!	!	!	!	!	!	!	!
.	.	.	8ee\J	.	8gg\J	.	.	.	.	.	.	.	.	8ee\J	8gg\J	.
!	!	!	!	!	!LO:PB:g=original	!	!	!	!	!	!	!	!	!	!LO:LB:g=original	!
=33	=33	=33	=33	=33	=33	=33	=33	=33	=33	=33	=33	=33	=33	=33	=33	=33
.	.	.	8qqee/	.	8qqgg/	.	.	.	.	.	.	.	.	(<8qqee/	(<8qqgg/	.
4B\	5	.	4dd\	.	4ff#\	.	4B\	-na	4d\	-na	4dd\	-na	2ryy	4dd\)	4ff#\)	.
8F#\L	6	.	8ff#\L	.	8aa\L	.	8r	.	8r	.	8r	.	.	8ff#\L	8aa\L	.
8F#\J	.	.	8ff#\J	.	[<8aa\J	.	8F#\	o-	8f#\	o-	8dd\	o-	.	8ff#\J	8aa\J	.
!	!	!	!LO:LB:g=original	!	!	!	!	!	!LO:LB:g=original	!	!	!	!	!	!	!
=34	=34	=34	=34	=34	=34	=34	=34	=34	=34	=34	=34	=34	=34	=34	=34	=34
.	.	.	(<8qqgg/	.	.	.	.	.	.	.	.	.	.	(<16qqgg/	(<8qqbb/	.
*	*	*	*	*	*	*	*	*ij	*	*	*	*ij	*	*	*	*
8G\L	9 2	.	8ff#\L)	.	8aa\L]	.	8G\	-san-	8f#\	-san-	8b\	-san-	2ryy	8ff#\L)	8aa\L)	.
8G\	.	.	16ee\L	.	16gg\L	.	8G\	-na	(16e\LL	-na	8b\	-na	.	16ee\L	16gg\L	.
.	.	.	16dd\JJ	.	16ff#\JJ	.	.	.	16d\JJ)	.	.	.	.	16dd\JJ	16ff#\JJ	.
8A\	2 5	.	8ee\L	.	8gg\L	.	8A\	in	8e\	in	8cc#\	in	.	8ee\L	8gg\L	.
8A\J	.	.	8ee\J	.	8gg\J	.	8A\	ex-	8e\	ex-	8cc#\	ex-	.	8ee\J	8gg\J	.
!LO:LB:g=original	!	!	!	!	!	!	!	!	!	!	!LO:LB:g=original	!	!	!	!	!
=35	=35	=35	=35	=35	=35	=35	=35	=35	=35	=35	=35	=35	=35	=35	=35	=35
.	.	.	.	.	.	.	.	.	.	.	.	.	.	(<8qqee/	.	.
8D\L	6	.	8ff#\L	.	8ff#\L	.	(8D\L	-cel-	8d\L	-cel-	4a\	-cel-	2ryy	8dd\)	8ff#\	.
!	!	!	!	!	!LO:N:vis=8	!	!	!	!	!	!	!	!	!	!	!
8E\	.	.	8gg\J	.	16ddd\L	.	8E\J)	.	8B\J	.	.	.	.	8r	8r	.
.	.	.	.	.	(32ccc#\L	.	.	.	.	.	.	.	.	.	.	.
.	.	.	.	.	32bb\JJJ)	.	.	.	.	.	.	.	.	.	.	.
!	!	!	!LO:TX:t=P:problem=mixed beam	!	!LO:TX:t=P:problem=mixed beam	!	!	!	!	!	!	!	!	!	!	!
8F#\	.	.	16.aa\LL	.	(16.aa\LL	.	8F#\	-sis	8d\	-sis	8a\	-sis	.	16.r	16.r	.
*	*	*	*	*	*	*	*	*Xij	*	*	*	*Xij	*	*	*	*
.	.	.	32a/JJk	.	32a/JJk)	.	.	.	.	.	.	.	.	32dd\KLL	32ff#\KLL	.
8A\J	.	.	16.cc#\LL	.	16.ee\LL	.	8A\	o-	8c#\	o-	8a\	o-	.	16.a\	16.ee\	.
.	.	.	32ee\JJk	.	32gg\JJk	.	.	.	.	.	.	.	.	32ee\JJk	32gg\JJk	.
!	!	!	!	!	!	!	!LO:LB:g=original	!	!	!	!	!	!	!	!	!
=36	=36	=36	=36	=36	=36	=36	=36	=36	=36	=36	=36	=36	=36	=36	=36	=36
*	*	*	*	*	*	*	*	*ij	*	*ij	*	*ij	*	*	*	*
8D\L	.	.	8ff#\L	.	8ff#\L	.	8D\	-san-	8d\	-san-	8a\	-san-	2ryy	8dd\	8ff#\	.
!	!	!	!	!	!LO:N:vis=8	!	!	!	!	!	!	!	!	!	!	!
8E\	.	.	8gg\J	.	16ddd\L	.	8E\	-na	8c#\	-na	8a\	-na	.	8r	8r	.
.	.	.	.	.	(32ccc#\L	.	.	.	.	.	.	.	.	.	.	.
.	.	.	.	.	32bb\JJJ)	.	.	.	.	.	.	.	.	.	.	.
!	!	!	!LO:TX:t=P:problem=mixed beam	!	!LO:TX:t=P:problem=mixed beam	!	!	!	!	!	!	!	!	!	!	!
8F#\	.	.	16.aa\LL	.	16.aa\LL	.	8F#\	in	8d\	in	8a\	in	.	16.r	16.r	.
.	.	.	32a/JJk	.	32a/JJk	.	.	.	.	.	.	.	.	32dd\KLL	32ff#\KLL	.
8A\J	.	.	16.cc#\LL	.	16.ee\LL	.	8A\	ex-	8e\	ex-	8a\	ex-	.	16.a\	16.ee\	.
*	*	*	*	*	*	*	*	*Xij	*	*	*	*	*	*	*	*
.	.	.	32ee\JJk	.	32gg\JJk	.	.	.	.	.	.	.	.	32ee\JJk	32gg\JJk	.
!	!	!	!	!	!	!	!	!	!	!	!	!	!	!LO:LB:g=original	!	!
=37	=37	=37	=37	=37	=37	=37	=37	=37	=37	=37	=37	=37	=37	=37	=37	=37
!LO:TX:t=P:problem=mixed beam	!	!	!	!	!	!	!	!	!	!	!	!	!	!	!	!
8d\L	.	.	4dd\	.	24ff#\LL	.	4d\	-cel-	(4d\	-cel-	4a\	-cel-	2ryy	4dd\	4ff#\	.
.	.	.	.	.	24aa\	.	.	.	.	.	.	.	.	.	.	.
.	.	.	.	.	24ddd\JJ	.	.	.	.	.	.	.	.	.	.	.
8D/J	.	.	.	.	24ff#\LL	.	.	.	.	.	.	.	.	.	.	.
.	.	.	.	.	24ee\	.	.	.	.	.	.	.	.	.	.	.
.	.	.	.	.	24dd\JJ	.	.	.	.	.	.	.	.	.	.	.
!LO:TX:t=P:problem=mixed beam	!	!	!	!	!	!	!	!	!	!	!	!	!	!	!	!
8A\L	.	.	4cc#\	.	4eeM\	.	4A\	.	4c#\)	.	8b\	-sis	.	4a/	4eeM\	.
*	*	*	*	*	*	*	*	*	*	*	*	*Xij	*	*	*	*
8AA/J	.	.	.	.	.	.	.	.	.	.	8a\	o-	.	.	.	.
=38	=38	=38	=38	=38	=38	=38	=38	=38	=38	=38	=38	=38	=38	=38	=38	=38
!	!	!LO:DY:a	!	!	!	!	!	!	!	!	!	!	!	!	!	!
8D\L	.	p	4dd\	p	4dd\	.	4D\	-sis	4d\	-sis	4a\	-san-	2ryy	4f#/	4dd\	.
*	*	*	*	*	*	*	*	*	*	*Xij	*	*	*	*	*	*
8D\	.	.	.	.	.	.	.	.	.	.	.	.	.	.	.	.
.	.	.	.	.	.	.	.	.	(<16qqd/LL	.	.	.	.	.	.	.
.	.	.	.	.	.	.	.	.	16qqe/JJ	.	.	.	.	.	.	.
8F#\	.	.	4ff#\	.	[4aa\	.	8r	.	4f#\)	o-	4dd\	.	.	4r	4r	.
8D\J	.	.	.	.	.	.	8D\	o-	.	.	.	.	.	.	.	.
=39	=39	=39	=39	=39	=39	=39	=39	=39	=39	=39	=39	=39	=39	=39	=39	=39
.	.	.	8qqgg/	.	.	.	.	.	.	.	.	.	.	.	.	.
!	!	!	!	!	!	!	!	!	!	!	!	!	!	!	!LO:TX:a:t=1	!
4G\	9 2	.	8ff#\L	.	8aa\L]	.	(4G\	-san-	(4f#\	-san-	4b\	.	2ryy	2r	2r	.
.	.	.	16ee\L	.	16gg\L	.	.	.	.	.	.	.	.	.	.	.
.	.	.	16dd\JJ	.	16ff#\JJ	.	.	.	.	.	.	.	.	.	.	.
4A\	2	.	8ee\L	.	8gg\L	.	4A\)	.	4e\)	.	4cc#\	.	.	.	.	.
.	.	.	8ee\J	.	8gg\J	.	.	.	.	.	.	.	.	.	.	.
!	!	!	!	!	!	!	!	!	!LO:LB:g=original	!	!	!	!	!	!LO:LB:g=original	!
=40	=40	=40	=40	=40	=40	=40	=40	=40	=40	=40	=40	=40	=40	=40	=40	=40
.	.	.	8qqee/	.	(<8qqgg/	.	.	.	.	.	.	.	.	.	.	.
4B\	5	.	4dd\	.	4ff#\)	.	4B\	-na	4d\	-na	4a\	-na	2ryy	4r	4r	.
!	!	!	!	!	!	!	!	!	!	!	!	!	!	!	!	!LO:DY:rj
8F#\L	6	.	8ff#\L	.	8aa\L	.	8r	.	8r	.	8r	.	.	8ff#\L	8aa\L	p
*	*	*	*	*	*	*	*	*	*	*	*	*ij	*	*	*	*
8F#\J	.	.	8ff#\J	.	8aa\J	.	8F#\	o-	8f#\	o-	8dd\	o-	.	8ff#\J	8aa\J	.
!	!	!	!	!	!LO:LB:g=original	!	!	!	!	!	!	!	!	!	!	!
=41	=41	=41	=41	=41	=41	=41	=41	=41	=41	=41	=41	=41	=41	=41	=41	=41
.	.	.	8qqgg/	.	8qqbb/	.	.	.	.	.	.	.	.	(<16qqgg/	(<8qqbb/	.
*	*	*	*	*	*	*	*	*ij	*	*	*	*	*	*	*	*
8G\L	9	.	8ff#\L	.	8aa\L	.	8G\	-san-	8f#\	-san-	8b\	-san-	2ryy	8ff#\L)	8aa\L)	.
8G\	2	.	16ee\L	.	16gg\L	.	8G\	-na	(16e\LL	-na	8b\	-na	.	16ee\L	16gg\L	.
.	.	.	16dd\JJ	.	16ff#\JJ	.	.	.	16d\JJ)	.	.	.	.	16dd\JJ	16ff#\JJ	.
8A\	2	.	8ee\L	.	8gg\L	.	8A\	in	8e\	in	8cc#\	in	.	8ee\L	8gg\L	.
8A\J	.	.	8ee\J	.	8gg\J	.	8A\	ex-	8e\	ex-	8cc#\	ex-	.	8ee\J	8gg\J	.
!	!	!	!LO:LB:g=original	!	!	!	!	!	!	!	!LO:LB:g=original	!	!	!	!	!
=42	=42	=42	=42	=42	=42	=42	=42	=42	=42	=42	=42	=42	=42	=42	=42	=42
!	!	!LO:DY:a	!	!	!	!	!	!	!	!	!	!	!	!	!	!
8D\L	.	f	8ff#\L	.	8ff#\L	f	8D\L	-cel-	(8d\L	-cel-	4a\	-cel-	2ryy	8dd\	8ff#\	.
!	!	!	!	!	!LO:N:vis=8	!	!	!	!	!	!	!	!	!	!	!
8E\	.	.	8gg\J	.	16ddd\L	.	8E\J	.	8c#\J)	.	.	.	.	8r	8r	.
.	.	.	.	.	(32ccc#\L	.	.	.	.	.	.	.	.	.	.	.
.	.	.	.	.	32bb\JJJ)	.	.	.	.	.	.	.	.	.	.	.
!	!	!	!LO:TX:t=P:problem=mixed beam	!	!LO:TX:t=P:problem=mixed beam	!	!	!	!	!	!	!	!	!	!	!
8F#\	.	.	16.aa\LL	.	16.aa\LL	.	8F#\	-sis	8d\	-sis	8a\	-sis	.	16.r	16.r	.
*	*	*	*	*	*	*	*	*Xij	*	*	*	*Xij	*	*	*	*
.	.	.	32a/JJk	.	32a/JJk	.	.	.	.	.	.	.	.	32dd/KLL	32ff#\KLL	.
8A\J	.	.	16.cc#\LL	.	16.ee\LL	.	8A\	o-	8c#\	o-	8a\	o-	.	16.a/	16.ee\	.
.	.	.	32ee\JJk	.	32gg\JJk	.	.	.	.	.	.	.	.	32ee/JJk	32gg\JJk	.
!	!	!	!	!	!	!	!LO:LB:g=original	!	!	!	!	!	!	!	!	!
=43	=43	=43	=43	=43	=43	=43	=43	=43	=43	=43	=43	=43	=43	=43	=43	=43
*	*	*	*	*	*	*	*	*	*	*	*	*ij	*	*	*	*
8D\L	.	.	8ff#\L	.	8ff#\L	.	8D\	-san-	8d\	-san-	8a\	-san-	2ryy	8dd\	8ff#\	.
!	!	!	!	!	!LO:N:vis=8	!	!	!	!	!	!	!	!	!	!	!
8E\	.	.	8gg\J	.	16ddd\L	.	8E\	-na	8c#\	-na	8a\	-na	.	8r	8r	.
.	.	.	.	.	(32ccc#\L	.	.	.	.	.	.	.	.	.	.	.
.	.	.	.	.	32bb\JJJ)	.	.	.	.	.	.	.	.	.	.	.
!	!	!	!LO:TX:t=P:problem=mixed beam	!	!LO:TX:t=P:problem=mixed beam	!	!	!	!	!	!	!	!	!	!	!
8F#\	.	.	16.aa\LL	.	16.aa\LL	.	8F#\	in	8d\	in	8a\	in	.	16.r	16.r	.
.	.	.	32a/JJk	.	32a/JJk	.	.	.	.	.	.	.	.	32dd/KLL	32ff#\KLL	.
8A\J	.	.	16.cc#\LL	.	16.ee\LL	.	8G\	ex-	8e\	ex-	8a\	ex-	.	16.a/	16.ee\	.
.	.	.	32ee\JJk	.	32gg\JJk	.	.	.	.	.	.	.	.	32ee/JJk	32gg\JJk	.
*	*	*	*	*	*	*	*	*	*	*	*	*Xij	*	*	*	*
=44	=44	=44	=44	=44	=44	=44	=44	=44	=44	=44	=44	=44	=44	=44	=44	=44
!LO:TX:t=P:problem=mixed beam	!	!	!	!	!	!	!	!	!	!	!	!	!	!	!	!
8d\L	.	.	4dd\	.	24ff#\LL	.	4d\	-cel-	(4d\	-cel-	4a\	-cel-	2ryy	4dd\	4ff#\	.
.	.	.	.	.	24aa\	.	.	.	.	.	.	.	.	.	.	.
.	.	.	.	.	24ddd\JJ	.	.	.	.	.	.	.	.	.	.	.
8D/J	.	.	.	.	24ff#\LL	.	.	.	.	.	.	.	.	.	.	.
.	.	.	.	.	24ee\	.	.	.	.	.	.	.	.	.	.	.
.	.	.	.	.	24dd\JJ	.	.	.	.	.	.	.	.	.	.	.
!LO:TX:t=P:problem=mixed beam	!	!	!	!	!	!	!	!	!	!	!	!	!	!	!	!
8A\L	.	.	4cc#m\	.	4eeM\	.	4A\	.	4c#\)	.	8b\L	.	.	4a/	4eeM\	.
8AA/J	.	.	.	.	.	.	.	.	.	.	8a\J	.	.	.	.	.
!	!	!	!	!	!	!	!	!	!	!	!	!	!	!LO:LB:g=original	!	!
=45	=45	=45	=45	=45	=45	=45	=45	=45	=45	=45	=45	=45	=45	=45	=45	=45
8D/L	.	.	8dd\L	.	8dd\L	.	4D/	-sis	4d\	-sis	4a\	-sis	2ryy	8f#/L	8dd\L	.
8AA/J	.	.	8a\J	.	8a\J	.	.	.	.	.	.	.	.	8a/J	8a\J	.
!	!	!	!	!	!LO:TX:a:t=29	!	!	!	!	!	!	!	!	!	!	!
4DD/	.	.	4d/	.	4d/	.	4r	.	4r	.	4r	.	.	4d/	4d/	.
==	==	==	==	==	==	==	==	==	==	==	==	==	==	==	==	==
*-	*-	*-	*-	*-	*-	*-	*-	*-	*-	*-	*-	*-	*-	*-	*-	*-
!!!system-decoration: [(g1)][(g2)][(g3)]<s9>
!!!RDF**kern: > = above
!!!RDF**kern: < = below
!!!RDF**kern: | = vertical stroke
!!!RDF**dynam: f = "for"
!!!RDF**dynam: p = "pia"
!!!ENC: Andrzej Kubiczek
!!!END: 2020-12-20
!!!ENC: Andrzej Kubiczek
!!!END: 2022-01-08
